lib/healthicons/icons/solid/typography/J.svg

<svg fill="none" height="48" viewBox="0 0 48 48" width="48" xmlns="http://www.w3.org/2000/svg"><path clip-rule="evenodd" d="m30 10c1.1046 0 2 .8954 2 2v18c0 4.4183-3.5817 8-8 8s-8-3.5817-8-8c0-1.1046.8954-2 2-2s2 .8954 2 2c0 2.2092 1.7909 4 4 4s4-1.7908 4-4v-18c0-1.1046.8954-2 2-2z" fill="#333" fill-rule="evenodd"/></svg>

<svg width="48" height="48" viewBox="0 0 48 48" fill="none" xmlns="http://www.w3.org/2000/svg">
<path fill-rule="evenodd" clip-rule="evenodd" d="M30 10C31.1046 10 32 10.8954 32 12V30C32 34.4183 28.4183 38 24 38C19.5817 38 16 34.4183 16 30C16 28.8954 16.8954 28 18 28C19.1046 28 20 28.8954 20 30C20 32.2092 21.7909 34 24 34C26.2091 34 28 32.2092 28 30V12C28 10.8954 28.8954 10 30 10Z" fill="#333333"/>
</svg>
